X:1
T:Title
%%score { ( 1 4 ) | ( 2 3 ) }
L:1/8
M:6/4
K:G
V:1 treble nm="Grand Piano"
V:4 treble 
V:2 bass 
V:3 bass 
V:1
 z6 z4[Q:1/4=144] [G,B,D]2 | .[G,B,D]6 [A,G]2 [CA]2 [B,G]2 | B12 | d2 B2 A2 G2 E2 G2 | F12 | %5
 z2 F2 G2 A2 ^G2 A2 | c2- [Fc-]2 [Fc-]2 [Fc]4 [Fc]2 | B2 B2 B2 .[^CGB]4 [CG]2 | %8
 d12[K:bass][K:treble] |[M:1/4] [Fd]2 |[M:6/4] d2 c2 B2 d2 c2 B2 | c12 | %12
 [Ac]2 B2 A2 [Ac]2 B2 [DFA]2 | [GB]12 | d2 d2 d2 B2 A2 G2 | c12 | %16
 [DB]2 [B,D]2 [DGB]2 [CFA]2 [B,DG]2 [A,DF]2 |[M:5/4] [B,DG]2- [B,DG]2- [B,DG]6 |] %18
V:2
 z6 z4 G,,2 | z2[K:treble] E2 F2[K:bass] [G,,D,]4 [G,,D,]2 | %2
 [G,,G,]2 [G,,G,]2 [G,,G,]2 [G,,G,]4 [G,,G,]2 | [G,B,D]6 [G,B,D]4 [G,B,D]2 | %4
 [A,CD]2 [A,C]2 [A,C]2 [A,C]4 [A,C]2 | [D,C]6 [D,F,D]4 [D,F,D]2 | %6
 [D,A,]2 [D,A,]2 [D,A,]2 [D,A,]4 [D,D]2 | [G,DG]6 z2 A2 E,2 | D,2 D,2 D,2 D,6 |[M:1/4] [D,C]2 | %10
[M:6/4][K:treble] [G,B,G]2 [G,A,D]2 [G,D]2 [G,B,G]2 [G,A,D]2[K:bass] [G,D]2 | %11
 [D,A,]2 [F,A,]2 A,2 [D,A,]4 [D,A,]2 | z2[K:treble] G2 F2 z2 G2[K:bass] D,2 | %13
 G,2 G,2 G,2 G,4[K:treble] [G,DG]2 | z6 .D6 | [C,G,]2 [C,G,]2 [C,G,]2 [C,G,]4 [C,G,]2 | %16
 [D,G,]2 D,2 D,2 D,2 D,2 D,2 |[M:5/4] G,,2- G,,2- G,,6 |] %18
V:3
 x12 | G,,6[K:treble][K:bass] z6 | x12 | x12 | x12 | x12 | x12 | z6 .E,6 | x12 |[M:1/4] x2 | %10
[M:6/4][K:treble] x10[K:bass] x2 | x12 | [D,D]6[K:treble] .[D,D]6[K:bass] | x10[K:treble] x2 | %14
 [G,B,G]6 [G,=F]2- [G,CF]2 [G,B,F]2 | x12 | x12 |[M:5/4] x10 |] %18
V:4
 x12 | x12 | D2 G2 E2 D4 [DB]2 | x12 | z2 D2 D2 D4 D2 | D6 z6 | .F6 z6 | x12 | %8
 [DF]2[K:bass] [F,D]2 [G,E]2[K:treble] [A,F]6 |[M:1/4] x2 |[M:6/4] x12 | F2 D2 F2 F4 [Fc]2 | x12 | %13
 D2 D2 D2 D4 B2 | x12 | E2 E2 E2 E4 [Ec]2 | x12 |[M:5/4] x10 |] %18

